packages/sources/assets/src/assets/flag-pt.svg

<svg width="28" height="20" viewBox="0 0 28 20" fill="none" xmlns="http://www.w3.org/2000/svg">
<rect width="28" height="20" rx="2" fill="white"/>
<mask id="mask0_503_4163" style="mask-type:alpha" maskUnits="userSpaceOnUse" x="0" y="0" width="28" height="20">
<rect width="28" height="20" rx="2" fill="white"/>
</mask>
<g mask="url(#mask0_503_4163)">
<rect width="28" height="20" fill="#FF2936"/>
<path fill-rule="evenodd" clip-rule="evenodd" d="M0 20H10.6667V0H0V20Z" fill="#128415"/>
<path d="M10.6667 13.3333C12.5076 13.3333 14 11.841 14 10C14 8.15906 12.5076 6.66668 10.6667 6.66668C8.82572 6.66668 7.33333 8.15906 7.33333 10C7.33333 11.841 8.82572 13.3333 10.6667 13.3333Z" stroke="#FAF94F" stroke-width="1.33333"/>
<path fill-rule="evenodd" clip-rule="evenodd" d="M9.3335 8.33333C9.3335 8.14924 9.48273 8 9.66683 8H11.6668C11.8509 8 12.0002 8.14924 12.0002 8.33333V10.6667C12.0002 11.403 11.4032 12 10.6668 12C9.93045 12 9.3335 11.403 9.3335 10.6667V8.33333Z" fill="white"/>
<path fill-rule="evenodd" clip-rule="evenodd" d="M10.6667 10.6667C11.0349 10.6667 11.3333 9.70151 11.3333 9.33332C11.3333 8.96513 11.0349 8.66666 10.6667 8.66666C10.2985 8.66666 10 8.96513 10 9.33332C10 9.70151 10.2985 10.6667 10.6667 10.6667Z" fill="#1D50B5"/>
</g>
</svg>

<svg width="28" height="20" fill="none" xmlns="http://www.w3.org/2000/svg"><rect width="28" height="20" rx="2" fill="#fff"/><mask id="a" style="mask-type:alpha" maskUnits="userSpaceOnUse" x="0" y="0" width="28" height="20"><rect width="28" height="20" rx="2" fill="#fff"/></mask><g mask="url(#a)"><path fill="#FF2936" d="M0 0h28v20H0z"/><path fill-rule="evenodd" clip-rule="evenodd" d="M0 20h10.667V0H0v20Z" fill="#128415"/><path d="M10.667 13.333a3.333 3.333 0 1 0 0-6.666 3.333 3.333 0 0 0 0 6.666Z" stroke="#FAF94F" stroke-width="1.333"/><path fill-rule="evenodd" clip-rule="evenodd" d="M9.334 8.333c0-.184.149-.333.333-.333h2c.184 0 .333.15.333.333v2.334a1.333 1.333 0 0 1-2.667 0V8.333Z" fill="#fff"/><path fill-rule="evenodd" clip-rule="evenodd" d="M10.667 10.667c.368 0 .666-.965.666-1.334a.667.667 0 1 0-1.333 0c0 .369.299 1.334.667 1.334Z" fill="#1D50B5"/></g></svg>
